src/assets/upload.svg

<svg width="800px" height="800px" viewBox="0 0 24 24" xmlns="http://www.w3.org/2000/svg">
<path fill-rule="evenodd" clip-rule="evenodd" d="M12 15.75C12.4142 15.75 12.75 15.4142 12.75 15V4.02744L14.4306 5.98809C14.7001 6.30259 15.1736 6.33901 15.4881 6.06944C15.8026 5.79988 15.839 5.3264 15.5694 5.01191L12.5694 1.51191C12.427 1.34567 12.2189 1.25 12 1.25C11.7811 1.25 11.573 1.34567 11.4306 1.51191L8.43056 5.01191C8.16099 5.3264 8.19741 5.79988 8.51191 6.06944C8.8264 6.33901 9.29988 6.30259 9.56944 5.98809L11.25 4.02744L11.25 15C11.25 15.4142 11.5858 15.75 12 15.75Z"/>
<path d="M16 9C15.2978 9 14.9467 9 14.6945 9.16851C14.5853 9.24148 14.4915 9.33525 14.4186 9.44446C14.25 9.69667 14.25 10.0478 14.25 10.75L14.25 15C14.25 16.2426 13.2427 17.25 12 17.25C10.7574 17.25 9.75004 16.2426 9.75004 15L9.75004 10.75C9.75004 10.0478 9.75004 9.69664 9.58149 9.4444C9.50854 9.33523 9.41481 9.2415 9.30564 9.16855C9.05341 9 8.70227 9 8 9C5.17157 9 3.75736 9 2.87868 9.87868C2 10.7574 2 12.1714 2 14.9998V15.9998C2 18.8282 2 20.2424 2.87868 21.1211C3.75736 21.9998 5.17157 21.9998 8 21.9998H16C18.8284 21.9998 20.2426 21.9998 21.1213 21.1211C22 20.2424 22 18.8282 22 15.9998V14.9998C22 12.1714 22 10.7574 21.1213 9.87868C20.2426 9 18.8284 9 16 9Z"/>
</svg>

<svg xmlns="http://www.w3.org/2000/svg" width="800" height="800" viewBox="0 0 24 24"><path fill-rule="evenodd" d="M12 15.75a.75.75 0 0 0 .75-.75V4.027l1.68 1.961a.75.75 0 1 0 1.14-.976l-3-3.5a.75.75 0 0 0-1.14 0l-3 3.5a.75.75 0 1 0 1.14.976l1.68-1.96V15c0 .414.336.75.75.75Z" clip-rule="evenodd"/><path d="M16 9c-.702 0-1.053 0-1.306.169a1 1 0 0 0-.275.275c-.169.253-.169.604-.169 1.306V15a2.25 2.25 0 1 1-4.5 0v-4.25c0-.702 0-1.053-.169-1.306a1 1 0 0 0-.275-.275C9.053 9 8.702 9 8 9c-2.828 0-4.243 0-5.121.879C2 10.757 2 12.17 2 14.999v1c0 2.83 0 4.243.879 5.122C3.757 22 5.172 22 8 22h8c2.828 0 4.243 0 5.121-.879C22 20.242 22 18.828 22 16v-1c0-2.829 0-4.243-.879-5.121C20.243 9 18.828 9 16 9Z"/></svg>
